X:299
T:score96
L:1/8
Q:1/4=96
M:2/4
I:linebreak $
K:A
 (c2- c/d/^d/e/ | .a)(e dc | (B3) d) | (f3 d) | (B2- B/^A/B/^B/ |$ .c)(e dc | BA GA) | (c2 B) z |] %8
